packages/match-logos/mono/svg/allianz.svg

<svg fill="none" height="36" viewBox="0 0 139 36" width="139" xmlns="http://www.w3.org/2000/svg" xmlns:xlink="http://www.w3.org/1999/xlink"><clipPath id="a"><path d="m0 0h138.375v36h-138.375z"/></clipPath><g clip-path="url(#a)"><path clip-rule="evenodd" d="m120.472 0c10.304 0 17.913 7.67213 17.913 17.8964 0 10.2559-7.609 17.928-17.913 17.928-10.145 0-17.912-7.6721-17.912-17.928 0-10.22427 7.767-17.8964 17.912-17.8964zm0 2.78987c-8.559 0-14.9 6.3723-14.9 15.10653 0 8.7341 6.341 15.1064 14.9 15.1064 8.56 0 14.901-6.3723 14.901-15.1064 0-8.73423-6.341-15.10653-14.901-15.10653zm-64.8332 8.67183c4.1214 0 5.5481 1.4266 5.5481 5.6431v8.1001c0 .856.4755 1.284 1.4266 1.284h.1585v1.6961h-4.7555c-.951 0-1.4266-.4914-1.4266-1.5217v-.5073c-.9511.8718-1.2681 1.0621-2.0607 1.4266-.7926.5073-1.9022.7609-3.0118.7609-2.8532 0-4.1214-1.49-4.1214-4.6128 0-2.4887.9511-4.0738 3.0118-4.8981.6341-.2695 1.2681-.4755 1.9022-.634 1.2681-.2695 1.9022-.3963 4.1214-.7609v-.4122c0-1.4583-.4755-1.9814-2.0607-1.9814-.317 0-.9511.0634-1.4266.1268-.9511.1744-1.7437.3646-3.0118.8718l-.4756.1903-1.1096-3.0435c1.4267-.745 2.0607-.967 3.3288-1.2681 1.2682-.3012 2.5363-.4597 3.9629-.4597zm-43.5916-5.3103c1.4266 0 2.0606.42799 2.3777 1.75952l5.7065 20.27408h-5.3895l-1.5851-5.342h-6.49916l-1.58516 5.342h-5.07248l5.70654-17.3257c.47555-1.09376.47555-1.39493.47555-1.85463 0-.72917-.47555-1.03035-1.42663-1.03035h-.63407v-1.82292zm13.1567 0c1.1096 0 1.7437.5548 1.7437 1.61685v20.41675h-4.914v-18.95841c0-.85598-.4755-1.25227-1.4266-1.25227h-.3171v-1.82292zm8.8769 0c1.1096 0 1.7436.5548 1.7436 1.61685v20.41675h-4.9139v-18.95841c0-.85598-.4756-1.25227-1.4267-1.25227h-.317v-1.82292zm9.0353 5.5322c.9511 0 1.5852.6023 1.5852 1.6327v14.8687h-4.914v-13.4104c0-.9035-.317-1.2998-1.2681-1.2998h-.317v-1.7912zm32.3371-.1902c1.4267 0 2.3777.3962 3.1703 1.2522.6341.8719.9511 1.8705.9511 4.1848v11.2546h-4.914v-10.462c0-1.6803-.317-2.1558-1.4266-2.1558s-1.9022.3963-3.0118 1.4266v11.1912h-4.914v-13.4104c0-.9035-.4755-1.2998-1.4266-1.2998h-.1585v-1.7912h4.7555c.951 0 1.4266.5072 1.4266 1.5376v.8877c2.2192-1.9181 3.6458-2.6155 5.548-2.6155zm19.0227.1892v3.3922l-6.9747 9.9547h7.2917v3.1545h-12.6812v-3.4239l7.1332-9.9548h-3.8044c-.9511 0-1.4267.3646-1.4267 1.2681v.3329h-1.7436v-2.9959c0-1.2206.4755-1.7278 1.7436-1.7278zm26.3131-5.07252c1.427 0 2.061.4914 2.061 1.99729v18.67313h-4.755v-17.38916c0-.91938-.317-1.22056-1.11-1.22056h-.476v-2.0607zm7.134 4.58112c1.426 0 2.06.5706 2.06 1.9973v14.092h-4.597v-16.0893zm-12.365 0v16.0893h-4.597v-14.092c0-1.4267.634-1.9973 2.061-1.9973zm-59.1266 8.9888c-1.4266.2378-2.2192.4438-3.0118.7767-1.1096.428-1.4266.9511-1.4266 2.3143 0 1.2365.4755 1.6961 1.4266 1.6961s2.0607-.5389 3.0118-1.49zm-46.2864-9.6219-2.69479 8.7659h5.07249zm31.8615-4.77129c1.7437 0 2.8533.85599 2.8533 2.31433 0 1.49004-1.1096 2.36186-2.8533 2.36186-1.9022 0-2.8533-.87182-2.8533-2.36186 0-1.45834.9511-2.31433 2.8533-2.31433z" fill="#1f304c" fill-rule="evenodd"/></g></svg>

<svg width="139" height="36" viewBox="0 0 139 36" fill="none" xmlns="http://www.w3.org/2000/svg">
<g clip-path="url(#clip0)">
<path fill-rule="evenodd" clip-rule="evenodd" d="M120.472 0C130.776 0 138.385 7.67213 138.385 17.8964C138.385 28.1523 130.776 35.8244 120.472 35.8244C110.327 35.8244 102.56 28.1523 102.56 17.8964C102.56 7.67213 110.327 0 120.472 0ZM120.472 2.78987C111.913 2.78987 105.572 9.16217 105.572 17.8964C105.572 26.6305 111.913 33.0028 120.472 33.0028C129.032 33.0028 135.373 26.6305 135.373 17.8964C135.373 9.16217 129.032 2.78987 120.472 2.78987ZM55.6388 11.4617C59.7602 11.4617 61.1869 12.8883 61.1869 17.1048V25.2049C61.1869 26.0609 61.6624 26.4889 62.6135 26.4889H62.772V28.185H58.0165C57.0655 28.185 56.5899 27.6936 56.5899 26.6633V26.156C55.6388 27.0278 55.3218 27.2181 54.5292 27.5826C53.7366 28.0899 52.627 28.3435 51.5174 28.3435C48.6642 28.3435 47.396 26.8535 47.396 23.7307C47.396 21.242 48.3471 19.6569 50.4078 18.8326C51.0419 18.5631 51.6759 18.3571 52.31 18.1986C53.5781 17.9291 54.2122 17.8023 56.4314 17.4377V17.0255C56.4314 15.5672 55.9559 15.0441 54.3707 15.0441C54.0537 15.0441 53.4196 15.1075 52.9441 15.1709C51.993 15.3453 51.2004 15.5355 49.9323 16.0427L49.4567 16.233L48.3471 13.1895C49.7738 12.4445 50.4078 12.2225 51.6759 11.9214C52.9441 11.6202 54.2122 11.4617 55.6388 11.4617ZM12.0472 6.1514C13.4738 6.1514 14.1078 6.57939 14.4249 7.91092L20.1314 28.185H14.7419L13.1568 22.843H6.65764L5.07248 28.185H0L5.70654 10.8593C6.18209 9.76554 6.18209 9.46437 6.18209 9.00467C6.18209 8.2755 5.70654 7.97432 4.75546 7.97432H4.12139V6.1514H12.0472ZM25.2039 6.1514C26.3135 6.1514 26.9476 6.7062 26.9476 7.76825V28.185H22.0336V9.22659C22.0336 8.37061 21.5581 7.97432 20.607 7.97432H20.2899V6.1514H25.2039ZM34.0808 6.1514C35.1904 6.1514 35.8244 6.7062 35.8244 7.76825V28.185H30.9105V9.22659C30.9105 8.37061 30.4349 7.97432 29.4838 7.97432H29.1668V6.1514H34.0808ZM43.1161 11.6836C44.0672 11.6836 44.7013 12.2859 44.7013 13.3163V28.185H39.7873V14.7746C39.7873 13.8711 39.4703 13.4748 38.5192 13.4748H38.2022V11.6836H43.1161ZM75.4532 11.4934C76.8799 11.4934 77.8309 11.8896 78.6235 12.7456C79.2576 13.6175 79.5746 14.6161 79.5746 16.9304V28.185H74.6606V17.723C74.6606 16.0427 74.3436 15.5672 73.234 15.5672C72.1244 15.5672 71.3318 15.9635 70.2222 16.9938V28.185H65.3082V14.7746C65.3082 13.8711 64.8327 13.4748 63.8816 13.4748H63.7231V11.6836H68.4786C69.4296 11.6836 69.9052 12.1908 69.9052 13.2212V14.1089C72.1244 12.1908 73.551 11.4934 75.4532 11.4934ZM94.4759 11.6826V15.0748L87.5012 25.0295H94.7929V28.184H82.1117V24.7601L89.2449 14.8053H85.4405C84.4894 14.8053 84.0138 15.1699 84.0138 16.0734V16.4063H82.2702V13.4104C82.2702 12.1898 82.7457 11.6826 84.0138 11.6826H94.4759ZM120.789 6.61008C122.216 6.61008 122.85 7.10148 122.85 8.60737V27.2805H118.095V9.89134C118.095 8.97196 117.778 8.67078 116.985 8.67078H116.509V6.61008H120.789ZM127.923 11.1912C129.349 11.1912 129.983 11.7618 129.983 13.1885V27.2805H125.386V11.1912H127.923ZM115.558 11.1912V27.2805H110.961V13.1885C110.961 11.7618 111.595 11.1912 113.022 11.1912H115.558ZM56.4314 20.18C55.0048 20.4178 54.2122 20.6238 53.4196 20.9567C52.31 21.3847 51.993 21.9078 51.993 23.271C51.993 24.5075 52.4685 24.9671 53.4196 24.9671C54.3707 24.9671 55.4803 24.4282 56.4314 23.4771V20.18ZM10.145 10.5581L7.45021 19.324H12.5227L10.145 10.5581ZM42.0065 5.78681C43.7502 5.78681 44.8598 6.6428 44.8598 8.10114C44.8598 9.59118 43.7502 10.463 42.0065 10.463C40.1043 10.463 39.1532 9.59118 39.1532 8.10114C39.1532 6.6428 40.1043 5.78681 42.0065 5.78681Z" fill="#1F304C"/>
</g>
<defs>
<clipPath id="clip0">
<rect width="138.375" height="36" fill="white"/>
</clipPath>
</defs>
</svg>
